X:1
T:Stockton, CM
T:Stockton, CM
T:Thomas Wright (1763–1829)
T:Public Domain Courtesy of the Cyber Hymnal™
C:Thomas Wright (1763–1829)
Z:Public Domain
Z:Courtesy of the Cyber Hymnal™
%%score ( 1 2 ) ( 3 4 )
L:1/8
Q:1/4=113
M:none
K:D
V:1 treble 
V:2 treble 
V:3 bass 
V:4 bass 
V:1
 D2 | [DF]2 G2 [DA]2 [Dd]2 | [EG]2 [DF]2 [CE]2 [CE]2 | [DF]2 [D^G]2 [EA]2 G2 | [CA]6 [Dd]2 | %5
 [DF]2 [DB]2 [DA]2 D2 | [DE]2 [CG]2 [DF]2 [DA]2 | [DB]2 D2 [DF]2 [CE]2 x | D6 |] %9
V:2
 D2 | x2 (DC) x4 | x8 | x6 (DB,) | x8 | x6 D2 | x8 | x2 D2 x5 | D6 |] %9
V:3
 [D,F,]2 | [D,A,]2 [E,G,]2 F,2 [B,,B,]2 | [C,A,]2 [D,A,]2 [A,,A,]2 [A,,A,]2 | %3
 [D,A,]2 [B,,B,]2 [C,A,]2 [E,B,]2 | [A,,A,]6 [F,A,]2 | [D,A,]2 G,2 [F,A,]2 [F,,A,]2 | %6
 [G,,B,]2 [A,,A,]2 [D,A,]2 [F,A,]2 | G,2 ([F,A,][G,B,]) A,3 z G, | [D,F,]6 |] %9
V:4
 x2 | x4 F,2 x2 | x8 | x8 | x8 | x2 G,2 x4 | x8 | G,2 A,2 A,,2 x3 | x6 |] %9

